src/icons/solid/status/information.svg

<svg width="24" height="24" viewBox="0 0 24 24" fill="none" xmlns="http://www.w3.org/2000/svg">
<g clip-path="url(#clip0_4544_529)">
<path fill-rule="evenodd" clip-rule="evenodd" d="M2 12C2 17.5011 6.48775 21.9889 12 21.9889V22C17.5122 22 22 17.5122 22 12C22 6.48775 17.5122 2 12 2C6.48775 2 2 6.49889 2 12ZM12.03 9.06206C12.5989 9.06206 13.06 8.60045 13.06 8.03103C13.06 7.46161 12.5989 7 12.03 7C11.4611 7 11 7.46161 11 8.03103C11 8.60045 11.4611 9.06206 12.03 9.06206ZM14.25 17H13.65C12.35 17 11.29 15.9389 11.29 14.6376V10.8238C11.29 10.4134 11.63 10.0731 12.04 10.0731C12.45 10.0731 12.79 10.4134 12.79 10.8238V14.6376C12.79 15.1181 13.18 15.4985 13.65 15.4985H14.25C14.66 15.4985 15 15.8388 15 16.2492C15 16.6596 14.66 17 14.25 17Z" fill="#3C3B44"/>
</g>
<defs>
<clipPath id="clip0_4544_529">
<rect width="24" height="24" fill="white"/>
</clipPath>
</defs>
</svg>

<svg xmlns="http://www.w3.org/2000/svg" width="24" height="24" fill="none" viewBox="0 0 24 24"><g clip-path="url(#a)"><path fill="currentColor" fill-rule="evenodd" d="M2 12c0 5.501 4.488 9.989 10 9.989V22c5.512 0 10-4.488 10-10S17.512 2 12 2 2 6.499 2 12m10.03-2.938a1.03 1.03 0 1 0-.001-2.06 1.03 1.03 0 0 0 .001 2.06M14.25 17h-.6c-1.3 0-2.36-1.061-2.36-2.362v-3.814c0-.41.34-.75.75-.75s.75.34.75.75v3.814c0 .48.39.86.86.86h.6c.41 0 .75.34.75.751 0 .41-.34.751-.75.751" clip-rule="evenodd"/></g><defs><clipPath id="a"><path fill="currentColor" d="M0 0h24v24H0z"/></clipPath></defs></svg>
